X:1
T:Psalm 131
T:A minor         Israel Holdroyd, 1722
T:Isaac Watts, 1719 (Psalm 131)                  86. 86. (C. M.)                   
T:Transcribed from The Spiritual Man's Companion, 1724
T:No Copyright.  Transcribed from Suffolk Harmony, 1786.
Z:No Copyright.  Transcribed from Suffolk Harmony, 1786.
%%score [ 1 2 3 4 ]
L:1/8
Q:1/4=150
M:2/2
K:C
V:1 treble nm="Tr." snm="Tr."
V:2 treble nm="C." snm="C."
V:3 treble-8 nm="T." snm="T."
V:4 bass nm="B." snm="B."
V:1
 z4"_1.  Is   there   am –bi  –tion    in   my  heart?    Search, gracious God, and see;   Or  do  I  act  a   haughty    part?   Lord, I  appeal to  thee." c4 | %1
 c4 (B2 A2) | (B2 c2) (d2 c2) | (B2 A2) (d2 c2) | B8 | z4 B4 | A4 ^G4 | A4 A4 | ^G8 | z4 c4 | %10
 B4 A4 | ^G4 A4 | A4 (d2 c2) | B8 | z4 c4 | B4 A4 | A4 ^G4 | A8 |] %18
V:2
 z4"_2.   I charge my thoughts, be  humble     still,     And  all   my  carriage  mild,   Content, my Father, with thy will,  And  quiet  as   a  child." E4 | %1
 E4 E4 | (F2 E2) (D2 E2) | F4 F4 | E8 | z4 E4 | (C2 D2) E4 | E4 (G2 F2) | E8 | z4 G4 | G4 E4 | %11
 E4 E4 | F4 E4 | E8 | z4 F4 | E4 C4 | F4 E4 | E8 |] %18
V:3
 z4"_3.  The   patient   soul,  the   low – ly    mind,   Shall have  a   large  re–ward:   Let saints in sorrow lie  resigned, And trust a faithful Lord." A4 | %1
 A4 ^G4 | A4 (B2 c2) | (d2 c2) (B2 A2) | ^G8 | z4 ^G4 | A4 B4 | c4 (d2 c2) | B8 | z4 e4 | d4 c4 | %11
 B4 c4 | (d2 c2) (B2 A2) | ^G8 | z4 A4 | B4 e4 | (d2 c2) B4 | A8 |] %18
V:4
 z4"______________________________________________________________________________\nThese words substituted for the original words, the \nOld Version\n  paraphrase of Psalm 131.\nThis tune is sometimes called Oakingham." (A,,2 B,,2) | %1
 (C,2 D,2) E,4 | (D,2 C,2) (B,,2 A,,2) | D,4 D,4 | E,8 | z4 E,4 | F,4 (E,2 D,2) | C,4 (B,,2 A,,2) | %8
 E,8 | z4 C,4 | G,4 A,4 | E,4 A,4 | D,4 A,,4 | E,8 | z4 A,4 | ^G,4 A,4 | D,4 E,4 | A,,8 |] %18

